!!!COM: Gaspar van Weerbeke
!!!CDT: ~1450-~1517
!!!OPR: Missa Ave regina celorum
!!!OTL: Agnus Dei
!!!OMV: 5
!!!AGN: Mass
!!!SCT: Gas0101e
!!!SCA: Gas0101e
!!!voices: 4
**kern	**text	**kern	**text	**kern	**text	**kern	**text
*part4	*part4	*part3	*part3	*part2	*part2	*part1	*part1
*staff4	*staff4	*staff3	*staff3	*staff2	*staff2	*staff1	*staff1
*I"Bassus	*	*I"Tenor	*	*I"Altus	*	*I"Superius	*
*I'B	*	*I'T	*	*I'A	*	*I'S	*
*clefF4	*	*clefF4	*	*clefGv2	*	*clefGv2	*
*k[b-]	*	*k[b-]	*	*k[b-]	*	*k[b-]	*
*M3/2	*	*M3/2	*	*M3/2	*	*M3/2	*
*met(O)	*	*met(O)	*	*met(O)	*	*met(O)	*
=1	=1	=1	=1	=1	=1	=1	=1
*	*	*	*	*col	*	*	*
1.r	.	1.r	.	[1.F	A-	1.F	A-
=2	=2	=2	=2	=2	=2	=2	=2
1.r	.	1.r	.	2F]	.	4.A	.
*	*	*	*	*Xcol	*	*	*
.	.	.	.	.	.	8B-y	.
.	.	.	.	4.E	.	4.c	.
.	.	.	.	8C	.	8A	.
.	.	.	.	4D	.	4B-y	.
*	*	*	*	*lig	*	*	*
*	*	*	*	*col	*	*	*
.	.	.	.	[4E	.	[4c	.
=3	=3	=3	=3	=3	=3	=3	=3
1.r	.	1.r	.	4E]	.	8c]L	.
.	.	.	.	.	.	8dJ	.
.	.	.	.	2C	.	2e	.
*	*	*	*	*Xcol	*	*	*
*	*	*	*	*Xlig	*	*	*
.	.	.	.	2D	.	4f	.
.	.	.	.	.	.	4d	.
.	.	.	.	4E	.	8cL	.
.	.	.	.	.	.	8B-yJ	.
=4	=4	=4	=4	=4	=4	=4	=4
1.r	.	1.r	.	2.F	.	2A	-gnus
.	.	.	.	.	.	4r	.
.	.	.	.	4D	.	4F	De-
.	.	.	.	2E	.	2G	.
=5	=5	=5	=5	=5	=5	=5	=5
1.r	.	1.r	.	2F	-gnus	2A	.
.	.	.	.	4r	.	4G	.
*	*	*	*	*	*edit	*	*
.	.	.	.	4F	De-	4A	.
.	.	.	.	2G	.	2B-y	.
!!LO:LB:g=original
=6	=6	=6	=6	=6	=6	=6	=6
1.r	.	1.r	.	2A	.	4A	.
.	.	.	.	.	.	4c	.
.	.	.	.	4G	.	4B-y	.
.	.	.	.	4A	.	2A	.
.	.	.	.	2B-y	.	.	.
.	.	.	.	.	.	4G	.
=7	=7	=7	=7	=7	=7	=7	=7
2r	.	1.r	.	4A	.	4A	.
.	.	.	.	2G	.	2B-y	.
2r	.	.	.	.	.	.	.
.	.	.	.	2F	.	4A	.
2C	A-	.	.	.	.	2G	.
.	.	.	.	4E	.	.	.
=8	=8	=8	=8	=8	=8	=8	=8
4D	.	1.r	.	1F	-i,	4F	-i,
*	*	*	*	*	*	*	*edit
4.BB-y	.	.	.	.	.	2f	De-
8AA	.	.	.	.	.	.	.
4BB-y	.	.	.	.	.	2d	.
*	*	*	*	*	*Xedit	*	*
2C	.	.	.	2E	De-	.	.
.	.	.	.	.	.	4c	.
=9	=9	=9	=9	=9	=9	=9	=9
2GG	-gnus	1.r	.	2D	.	8dL	.
.	.	.	.	.	.	8c	.
.	.	.	.	.	.	8B-y	.
.	.	.	.	.	.	8AJ	.
4C	De-	.	.	4E	.	4G	.
4AA	.	.	.	4C	.	2c	.
2GG	.	.	.	2D	.	.	.
.	.	.	.	.	.	4Bni	.
=10	=10	=10	=10	=10	=10	=10	=10
2AA	.	1.r	.	2C	.	4.c	.
.	.	.	.	.	.	8A	.
4GG	.	.	.	4D	.	4B-y	.
4FF	.	.	.	2F	.	4A	.
2C	-i,	.	.	.	.	2G	.
.	.	.	.	4E	.	.	.
!!LO:LB:g=original
=11	=11	=11	=11	=11	=11	=11	=11
*	*edit	*	*	*	*	*	*
4.FF	De-	1F	Qui	8FL	.	4F	-i,
.	.	.	.	8G	.	.	.
.	.	.	.	8A	.	2c	De-
8GG	.	.	.	8B-yJ	.	.	.
4AA	.	.	.	4c	.	.	.
4BB-y	.	.	.	4B-y	.	2d	.
4C	.	2E	.	4G	.	.	.
4AA	.	.	.	4c	.	4c	.
=12	=12	=12	=12	=12	=12	=12	=12
*	*	*lig	*edit	*	*	*	*
4BB-y	.	2D	tol-	2B-y	-i,	4d	.
*lig	*	*	*	*	*	*	*
2D	.	.	.	.	.	4f	.
.	.	2E	.	4r	.	4e	.
*	*	*Xlig	*	*	*edit	*	*
2C	.	.	.	4G	De-	4g	.
*Xlig	*	*	*	*	*	*	*
.	.	2D	.	4A	.	4f	.
4BB-y	.	.	.	4B-y	.	4d	.
=13	=13	=13	=13	=13	=13	=13	=13
4C	.	2C	.	4A	.	4e	.
4E	.	.	.	2G	.	2c	.
2D	.	4D	.	.	.	.	.
.	.	2F	.	4F	.	4Bni	.
2C	-i,	.	.	4.G	.	2c	-i,
.	.	4E	.	.	.	.	.
.	.	.	.	8F	.	.	.
=14	=14	=14	=14	=14	=14	=14	=14
2r	.	1.F	-lis,	2D	-i,	2r	.
*	*Xedit	*	*	*	*Xedit	*	*Xedit
1FF	qui	.	.	2.C	qui	2c	qui
*	*	*	*	*	*	*lig	*
.	.	.	.	.	.	2A	tol-
.	.	.	.	[4D	tol-	.	.
!!LO:LB:g=original
=15	=15	=15	=15	=15	=15	=15	=15
*	*edit	*	*	*	*	*	*
2GG	tol-	1.r	.	2D]	.	2B-y	.
*	*	*	*	*	*	*Xlig	*
2.AA	.	.	.	2C	.	2c	.
.	.	.	.	4C	.	4A	.
4GG	.	.	.	4D	.	4B-y	.
=16	=16	=16	=16	=16	=16	=16	=16
*	*	*	*Xedit	*	*	*	*
4AA	.	1F	tol-	4C	.	4A	.
2BB-y	.	.	.	1F	.	2d	.
4AA	.	.	.	.	.	4c	.
2GG	.	2G	.	.	.	2B-y	.
.	.	.	.	4E	.	.	.
=17	=17	=17	=17	=17	=17	=17	=17
4FF	-lis,	1A	.	2F	-lis,	4.A	.
2F	qui	.	.	.	.	.	.
.	.	.	.	.	.	8B-y	.
.	.	.	.	2r	.	2.c	.
*	*Xedit	*	*	*	*	*	*
2C	tol-	.	.	.	.	.	.
.	.	2G	.	2r	.	.	.
4BB-y	.	.	.	.	.	4d	.
=18	=18	=18	=18	=18	=18	=18	=18
4AA	.	4A	.	4r	.	4c	.
*	*	*	*	*	*edit	*	*
2GG	.	2B-y	.	2G	qui	4.d	.
.	.	.	.	.	.	8c	.
4AA	.	4A	.	4C	tol-	2f	.
4BB-y	.	2G	.	4D	.	.	.
4C	.	.	.	4E	.	4e	.
!!LO:PB:g=original
=19	=19	=19	=19	=19	=19	=19	=19
1.FF	-lis	1.F	-lis	4C	.	1f	-lis
.	.	.	.	2D	.	.	.
.	.	.	.	4C	-lis	.	.
*	*	*	*	*	*Xedit	*	*
.	.	.	.	4.c	pec-	2r	.
.	.	.	.	8B-y	.	.	.
=20	=20	=20	=20	=20	=20	=20	=20
4.FF	pec-	1.r	.	8AL	.	1f	pec-
.	.	.	.	8GJ	.	.	.
.	.	.	.	2F	-ca-	.	.
8GG	.	.	.	.	.	.	.
4AA	.	.	.	.	.	.	.
4BB-y	.	.	.	8EL	.	.	.
.	.	.	.	8DJ	.	.	.
4C	.	.	.	2C	.	2e	.
4AA	.	.	.	.	.	.	.
=21	=21	=21	=21	=21	=21	=21	=21
8BB-yL	-ca-	1F	pec-	1BB-y	-ta,	1d	-ca-
8C	.	.	.	.	.	.	.
8D	.	.	.	.	.	.	.
8EJ	.	.	.	.	.	.	.
4F	.	.	.	.	.	.	.
4D	.	.	.	.	.	.	.
2C	-ta,	2E	.	2r	.	4e	.
.	.	.	.	.	.	4c	.
=22	=22	=22	=22	=22	=22	=22	=22
*	*edit	*	*	*	*edit	*	*
1BB-y	pec-	1D	-ca-	2.D	pec-	4.d	.
.	.	.	.	.	.	8e	.
.	.	.	.	.	.	4f	.
.	.	.	.	2G	-ca-	2d	.
2AA	.	4E	.	.	.	.	.
.	.	4C	.	4F	.	[4c	.
!!LO:LB:g=original
=23	=23	=23	=23	=23	=23	=23	=23
2GG	-ca-	2D	.	2G	-ta	4c]	.
.	.	.	.	.	.	4Bni	.
4AA	.	4C	.	4r	.	2c	-ta
*	*	*	*	*	*Xedit	*	*
4FF	.	2F	.	2C	mun-	.	.
2GG	.	.	.	.	.	2r	.
.	.	4E	.	4BB-y	.	.	.
=24	=24	=24	=24	=24	=24	=24	=24
*	*	*	*	*	*	*	*edit
4FF	.	1.F	-ta,	4C	.	4A	mun-
2BB-y	.	.	.	2D	.	4B-y	.
.	.	.	.	.	.	4B-y	.
*	*	*	*	*	*edit	*	*
4AA	.	.	.	4C	-di,	4c	.
2BB-y	-ta,	.	.	4r	.	2d	.
.	.	.	.	[4F	qui	.	.
=25	=25	=25	=25	=25	=25	=25	=25
1FF	pec-	1.r	.	4F]	.	2A	-di,
.	.	.	.	2C	tol-	.	.
*	*	*	*	*	*	*lig	*
.	.	.	.	.	.	2A	pec-
.	.	.	.	4.D	.	.	.
2GG	.	.	.	.	.	2B-y	.
*	*	*	*	*	*	*Xlig	*
.	.	.	.	8C	.	.	.
.	.	.	.	4BB-y	.	.	.
=26	=26	=26	=26	=26	=26	=26	=26
*	*	*	*edit	*	*	*	*
2.AA	-ca-	1F	pec-	4AA	-lis	2.c	-ca-
.	.	.	.	4.A	pec-	.	.
.	.	.	.	8GL	.	.	.
4.BB-y	.	.	.	8F	.	4.d	.
.	.	.	.	8EJ	.	.	.
.	.	2G	.	4.D	-ca-	.	.
8AA	.	.	.	.	.	8c	.
4GG	.	.	.	.	.	4B-y	.
.	.	.	.	8E	.	.	.
!!LO:LB:g=original
=27	=27	=27	=27	=27	=27	=27	=27
2.FF	-ta	2.A	-ca-	8FL	.	4A	.
.	.	.	.	8G	.	.	.
.	.	.	.	8A	.	4.c	.
.	.	.	.	8B-yJ	.	.	.
.	.	.	.	4c	.	.	.
.	.	.	.	.	.	8B-y	.
4GG	.	4.B-y	-ta	4B-y	.	4G	-ta
*	*Xedit	*	*	*	*	*	*Xedit
2EE-X	mun-	.	.	2G	-ta	2g	mun-
.	.	8A	.	.	.	.	.
.	.	4G	.	.	.	.	.
=28	=28	=28	=28	=28	=28	=28	=28
*	*	*	*Xedit	*	*	*	*
4FF	.	2.F	mun-	4A	mun-	4c	.
4BB-y	.	.	.	4B-y	.	4d	.
4AA	.	.	.	2c	.	4c	.
4FF	.	4A	.	.	.	2f	.
*	*	*	*	*	*Xedit	*	*
2C	.	2G	.	2c	-di:	.	.
.	.	.	.	.	.	4e	.
=29	=29	=29	=29	=29	=29	=29	=29
*	*	*	*	*	*edit	*	*
2FF	-di:	1.F	-di:	2A	mi-	1f	-di:
2r	.	.	.	4F	.	.	.
.	.	.	.	2c	-se-	.	.
*	*edit	*	*	*	*	*	*
2FF	mi-	.	.	.	.	2r	.
.	.	.	.	[4d	-re-	.	.
=30	=30	=30	=30	=30	=30	=30	=30
*	*	*	*	*	*	*lig	*
2GG	.	2r	.	8d]L	.	2d	mi-
.	.	.	.	8cJ	.	.	.
.	.	.	.	4B-y	.	.	.
*	*	*lig	*	*	*	*	*
2AA	-se-	2F	mi-	2A	-re	2c	.
*	*	*	*	*	*	*Xlig	*
2BB-y	.	2G	.	4r	.	2B-y	-se-
*	*	*Xlig	*	*	*	*	*
.	.	.	.	4D	no-	.	.
!!LO:LB:g=original
=31	=31	=31	=31	=31	=31	=31	=31
*	*	*lig	*	*	*	*	*
4AA	.	2A	-se-	4E	.	4c	-re-
2AA	-re-	.	.	4F	.	4A	.
*	*	*	*	*	*	*lig	*
.	.	2B-y	.	2G	-bis,	2d	.
*	*	*Xlig	*	*	*	*	*
4GG	.	.	.	.	.	.	.
4AA	.	4A	.	4.C	mi-	2c	.
*	*	*	*	*	*	*Xlig	*
[4C	.	[4A	-re-	.	.	.	.
.	.	.	.	8D	.	.	.
=32	=32	=32	=32	=32	=32	=32	=32
4C]	.	4A]	.	8EL	.	4A	.
.	.	.	.	8FJ	.	.	.
4BB-y	.	4G	.	2G	-se-	4B-y	.
4AA	.	4A	.	.	.	4c	.
4FF	.	2c	.	2F	-re-	4A	.
2GG	.	.	.	.	.	2G	-re
.	.	4B-y	.	4E	.	.	.
=33	=33	=33	=33	=33	=33	=33	=33
2FF	-re,	4A	-re	2F	-re	4r	.
*	*	*	*	*	*	*	*edit
.	.	4F	.	.	.	2c	no-
*	*	*	*edit	*	*	*	*
2r	.	2G	no-	4C	no-	.	.
.	.	.	.	4E-X	.	4B-y	.
2r	.	4F	.	4F	.	4A	.
.	.	4G	-bis,	[4C	-bis,	4G	-bis,
=34	=34	=34	=34	=34	=34	=34	=34
*	*Xedit	*lig	*	*	*	*	*
4.FF	mi-	2A	mi-	4C]	.	8FL	mi-
.	.	.	.	.	.	8G	.
*	*	*	*	*	*Xedit	*	*
.	.	.	.	2c	mi-	8A	.
8GG	.	.	.	.	.	8B-yJ	.
4AA	.	2F	.	.	.	4c	.
*	*	*Xlig	*	*	*	*	*
4.BB-y	-se-	.	.	2B-y	-se-	4.d	-se-
*	*	*lig	*	*	*	*	*
.	.	2F	-se-	.	.	.	.
8CL	.	.	.	.	.	8e	.
8D	.	.	.	[4A	-re-	[4f	-re-
8EJ	.	.	.	.	.	.	.
!!LO:PB:g=original
=35	=35	=35	=35	=35	=35	=35	=35
4F	-re-	2D	.	4A]	.	8f]L	.
*	*	*Xlig	*	*	*	*	*
.	.	.	.	.	.	8eJ	.
4BB-y	.	.	.	4B-y	.	2d	.
*	*	*lig	*	*	*	*	*
2C	.	2E	-re-	1G	-re	.	.
.	.	.	.	.	.	2c	.
2GG	-re	2D	.	.	.	.	.
*	*	*Xlig	*	*	*	*	*
.	.	.	.	.	.	4Bni	.
=36	=36	=36	=36	=36	=36	=36	=36
1.r	.	2C	-re	4r	.	2c	-re
*	*	*	*	*	*edit	*	*
.	.	.	.	4c	no-	.	.
.	.	2r	.	4B-y	.	4d	.
.	.	.	.	4A	.	2f	no-
.	.	2C	no-	2G	.	.	.
.	.	.	.	.	.	4e	.
=37	=37	=37	=37	=37	=37	=37	=37
2r	.	4D	.	2F	-bis,	2f	.
.	.	2F	.	.	.	.	.
*	*edit	*	*	*	*	*	*
2C	no-	.	.	2r	.	2g	.
.	.	4E	.	.	.	.	.
4D	.	2F	-bis,	2r	.	2f	-bis,
[4F	.	.	.	.	.	.	.
=38	=38	=38	=38	=38	=38	=38	=38
*	*	*lig	*	*	*	*	*
4F]	.	2G	.	2C	mi-	2r	.
4E	.	.	.	.	.	.	.
2F	.	2F	.	4D	.	2f	mi-
*	*	*Xlig	*	*	*	*	*
.	.	.	.	2F	-se-	.	.
2C	-bis,	2r	.	.	.	2g	-se-
.	.	.	.	4E	.	.	.
!!LO:LB:g=original
=39	=39	=39	=39	=39	=39	=39	=39
2FF	mi-	2r	.	4F	-re-	2a	.
.	.	.	.	4A	.	.	.
2GG	-se-	2r	.	2G	-re	4.b-y	-re-
.	.	.	.	.	.	8a	.
*	*	*	*	*	*Xedit	*lig	*
4AA	.	2F	mi-	4C	no-	2f	.
[4BB-y	-re-	.	.	[4D	.	.	.
=40	=40	=40	=40	=40	=40	=40	=40
8BB-]L	.	2G	-se-	4D]	.	2b-y	.
*	*	*	*	*	*	*Xlig	*
8AAJ	.	.	.	.	.	.	.
4GG	.	.	.	4E	.	.	.
4FF	-re	4A	.	4F	.	4a	-re
*	*Xedit	*	*	*	*	*	*Xedit
2.E-i	no-	2B-y	-re-	2.G	.	4.g	no-
.	.	.	.	.	.	8aL	.
.	.	8AL	.	.	.	8b-y	.
.	.	8GJ	.	.	.	8ccJ	.
=41	=41	=41	=41	=41	=41	=41	=41
4F	.	4F	.	4A	.	4a	.
4C	.	4E	-re	2c	.	2g	.
*lig	*	*lig	*Xedit	*	*	*	*
2D	.	2F	no-	.	.	.	.
.	.	.	.	4Bni	.	2f	.
2C	.	2G	.	2c	.	.	.
*Xlig	*	*Xlig	*	*	*	*	*
.	.	.	.	.	.	4e	.
=42	=42	=42	=42	=42	=42	=42	=42
*	*	*	*	*^	*	*	*
1.FFl	-bis.	1.Fl	-bis.	1.cl	1.Al	-bis.	1.fl	-bis.
*	*	*	*	*v	*v	*	*	*
!!LO:LB:g=original
=43||	=43||	=43||	=43||	=43||	=43||	=43||	=43||
*M2/2	*	*M2/2	*	*M2/2	*	*M2/2	*
*met(C|)	*	*met(C|)	*	*met(C|)	*	*met(C|)	*
2.C	A-	1r	.	1C	A-	1r	.
4AA	.	.	.	.	.	.	.
=44	=44	=44	=44	=44	=44	=44	=44
2BB-y	.	1r	.	2D	.	1r	.
4C	.	.	.	4C	.	.	.
[4AA	.	.	.	[4F	.	.	.
=45	=45	=45	=45	=45	=45	=45	=45
4AA]	.	1r	.	4F]	.	1r	.
4FF	.	.	.	4D	.	.	.
2GG	-gnus,	.	.	2E	.	.	.
=46	=46	=46	=46	=46	=46	=46	=46
1r	.	1r	.	4C	.	2.c	A-
.	.	.	.	2E	.	.	.
.	.	.	.	4F	.	4A	.
=47	=47	=47	=47	=47	=47	=47	=47
1r	.	1r	.	2G	.	2B-y	.
.	.	.	.	2C	-gnus,	4c	.
.	.	.	.	.	.	[4A	.
=48	=48	=48	=48	=48	=48	=48	=48
4r	.	1r	.	4D	.	4A]	.
*	*edit	*	*	*	*edit	*	*
4FF	A-	.	.	2F	A-	4F	.
2C	-gnus	.	.	.	.	2G	-gnus
.	.	.	.	4E	.	.	.
!!LO:LB:g=original
=49	=49	=49	=49	=49	=49	=49	=49
4.FF	De-	1r	.	2F	-gnus	4r	.
.	.	.	.	.	.	4.c	De-
8GG	.	.	.	.	.	.	.
4AA	.	.	.	4r	.	.	.
.	.	.	.	.	.	8B-y	.
*	*	*	*	*	*Xedit	*	*
8GGL	.	.	.	4F	De-	4A	.
8FFJ	.	.	.	.	.	.	.
=50	=50	=50	=50	=50	=50	=50	=50
4EE	.	1r	.	4G	.	4G	.
4FF	.	.	.	4A	.	2F	.
2GG	-i,	.	.	2B-y	-i,	.	.
.	.	.	.	.	.	4E	.
=51	=51	=51	=51	=51	=51	=51	=51
*	*	*	*	*	*edit	*	*edit
4r	.	1r	.	2.A	De-	4F	-i,
*	*Xedit	*	*	*	*	*	*
8FFL	De-	.	.	.	.	2f	De-
8GGJ	.	.	.	.	.	.	.
8AAL	.	.	.	.	.	.	.
8BB-yJ	.	.	.	.	.	.	.
[4C	.	.	.	8GL	.	[4e	.
.	.	.	.	8FJ	.	.	.
=52	=52	=52	=52	=52	=52	=52	=52
4C]	.	1r	.	4E	.	4e]	.
8BB-yL	.	.	.	2F	.	4c	.
8AAJ	.	.	.	.	.	.	.
2GG	-i,	.	.	.	.	4d	.
.	.	.	.	4E	.	4e	.
=53	=53	=53	=53	=53	=53	=53	=53
4r	.	1r	.	4.F	.	4c	.
4FF	qui	.	.	.	.	4A	.
.	.	.	.	8G	.	.	.
2C	.	.	.	2E	-i,	2G	.
=54	=54	=54	=54	=54	=54	=54	=54
*	*edit	*	*	*	*	*	*Xedit
2.D	tol-	1r	.	2r	.	2F	-i,
*	*	*	*	*	*Xedit	*	*
.	.	.	.	2F	qui	2r	.
8CL	.	.	.	.	.	.	.
8BB-yJ	.	.	.	.	.	.	.
!!LO:PB:g=original
=55	=55	=55	=55	=55	=55	=55	=55
2C	-lis,	1r	.	4C	.	4r	.
*	*	*	*	*	*	*	*edit
.	.	.	.	4F	.	4F	qui
4r	.	.	.	2G	.	2c	.
4E-X	qui	.	.	.	.	.	.
=56	=56	=56	=56	=56	=56	=56	=56
4D	.	1r	.	2.A	tol-	2.d	tol-
2F	tol-	.	.	.	.	.	.
8E-iL	.	.	.	4B-y	.	8cL	.
8DJ	.	.	.	.	.	8B-yJ	.
=57	=57	=57	=57	=57	=57	=57	=57
4C	.	1r	.	4c	.	4e-X	.
2G	.	.	.	4B-y	.	4d	.
.	.	.	.	4G	.	4e-	.
*	*	*	*	*	*	*lig	*
4F	.	.	.	[4A	.	[4d	.
=58	=58	=58	=58	=58	=58	=58	=58
4E-i	.	1r	.	8A]L	.	4d]	.
.	.	.	.	8GJ	.	.	.
4C	.	.	.	2G	.	2c	.
*	*	*	*	*	*	*Xlig	*
2D	.	.	.	.	.	.	.
.	.	.	.	4F	.	4Bni	.
=59	=59	=59	=59	=59	=59	=59	=59
2C	-lis,	1r	.	4.G	.	2c	-lis,
.	.	.	.	8A	.	.	.
4D	qui	.	.	4B-y	.	2r	.
4E	.	.	.	[4c	.	.	.
=60	=60	=60	=60	=60	=60	=60	=60
4C	.	1r	.	4c]	.	2r	.
*	*Xedit	*	*	*	*	*	*
2F	tol-	.	.	4A	.	.	.
*	*	*	*	*	*	*	*Xedit
.	.	.	.	2G	-lis	2B-y	qui
4E	.	.	.	.	.	.	.
!!LO:LB:g=original
=61	=61	=61	=61	=61	=61	=61	=61
4.F	.	1r	.	1r	.	4A	.
.	.	.	.	.	.	2c	tol-
8G	.	.	.	.	.	.	.
4A	.	.	.	.	.	.	.
4B-y	.	.	.	.	.	[4d	.
=62	=62	=62	=62	=62	=62	=62	=62
4G	.	1r	.	1r	.	8d]L	.
.	.	.	.	.	.	8B-yJ	.
4A	.	.	.	.	.	4.c	.
4F	.	.	.	.	.	.	.
.	.	.	.	.	.	8A	.
[4G	.	.	.	.	.	[4B-y	.
=63	=63	=63	=63	=63	=63	=63	=63
8G]L	.	1r	.	2r	.	4B-]	.
8DJ	.	.	.	.	.	.	.
4E	.	.	.	.	.	8AL	.
.	.	.	.	.	.	8GJ	.
*	*	*	*	*	*edit	*	*
4F	-lis	.	.	4.F	pec-	2F	-lis
[4FF	pec-	.	.	.	.	.	.
.	.	.	.	8G	.	.	.
=64	=64	=64	=64	=64	=64	=64	=64
8FF]L	.	1r	.	8AL	.	1r	.
8GGJ	.	.	.	8B-yJ	.	.	.
4AA	.	.	.	4c	.	.	.
4BB-y	.	.	.	4d	.	.	.
[4C	-ca-	.	.	[4e	-ca-	.	.
=65	=65	=65	=65	=65	=65	=65	=65
4C]	.	1r	.	4e]	.	2r	.
4E	.	.	.	2c	.	.	.
2D	.	.	.	.	.	2f	pec-
.	.	.	.	4Bni	.	.	.
=66	=66	=66	=66	=66	=66	=66	=66
4.C	.	1r	.	2c	-ta,	4.e	-ca-
8D	.	.	.	.	.	8f	.
4E	.	.	.	2r	.	4g	.
[4F	.	.	.	.	.	[4a	.
!!LO:LB:g=original
=67	=67	=67	=67	=67	=67	=67	=67
8F]L	.	1r	.	2r	.	8a]L	.
8EJ	.	.	.	.	.	8gJ	.
4.G	.	.	.	.	.	4.b-y	.
.	.	.	.	4r	.	.	.
8FL	.	.	.	.	.	8aL	.
*	*	*	*	*	*Xedit	*	*
8E	.	.	.	[4c	pec-	8g	.
8DJ	.	.	.	.	.	8fJ	.
=68	=68	=68	=68	=68	=68	=68	=68
4C	.	1r	.	4c]	.	4e	.
2F	.	.	.	4A	.	4f	.
.	.	.	.	4G	.	2g	.
4E	.	.	.	[4c	-ca-	.	.
=69	=69	=69	=69	=69	=69	=69	=69
2F	-ta,	1r	.	4c]	.	4c	.
.	.	.	.	4A	.	2f	.
2C	.	.	.	2G	.	.	.
.	.	.	.	.	.	4e	.
=70	=70	=70	=70	=70	=70	=70	=70
1r	.	1r	.	2.F	.	4.f	.
.	.	.	.	.	.	8e	.
.	.	.	.	.	.	4.c	.
.	.	.	.	8EL	.	.	.
.	.	.	.	8DJ	.	8d	.
=71	=71	=71	=71	=71	=71	=71	=71
2r	.	1r	.	2C	-ta	1e	-ta
*	*edit	*	*	*	*	*	*
2C	mun-	.	.	2r	.	.	.
=72	=72	=72	=72	=72	=72	=72	=72
4BB-y	.	1r	.	1r	.	2r	.
2C	.	.	.	.	.	.	.
.	.	.	.	.	.	2c	mun-
8BB-yL	.	.	.	.	.	.	.
8AAJ	.	.	.	.	.	.	.
=73	=73	=73	=73	=73	=73	=73	=73
4GG	.	1r	.	2r	.	4B-y	.
4AA	.	.	.	.	.	2c	.
2FF	-di,	.	.	2F	mun-	.	.
.	.	.	.	.	.	8B-yL	.
.	.	.	.	.	.	8AJ	.
!!LO:LB:g=original
=74	=74	=74	=74	=74	=74	=74	=74
1r	.	1r	.	4E	.	4G	.
.	.	.	.	4.F	.	4A	.
.	.	.	.	.	.	4.F	.
.	.	.	.	8E	.	.	.
.	.	.	.	4D	.	.	.
.	.	.	.	.	.	8G	.
=75	=75	=75	=75	=75	=75	=75	=75
1r	.	1r	.	4C	.	4A	.
.	.	.	.	4.D	.	2B-y	.
.	.	.	.	8C	.	.	.
.	.	.	.	4BB-y	.	4G	.
=76	=76	=76	=76	=76	=76	=76	=76
4r	.	1r	.	2AA	-di,	4A	.
4.FF	pec-	.	.	.	.	4.c	.
.	.	.	.	2r	.	.	.
8GG	.	.	.	.	.	8B-y	.
4AA	.	.	.	.	.	[4A	.
=77	=77	=77	=77	=77	=77	=77	=77
2BB-y	-ca-	1r	.	1r	.	4A]	.
.	.	.	.	.	.	4G	.
*	*	*	*	*	*	*	*edit
4AA	.	.	.	.	.	2A	-di,
[4C	.	.	.	.	.	.	.
=78	=78	=78	=78	=78	=78	=78	=78
8C]L	.	1r	.	1r	.	4r	.
8BB-yJ	.	.	.	.	.	.	.
2AA	.	.	.	.	.	4A	mun-
*	*	*	*	*	*	*lig	*
.	.	.	.	.	.	2B-y	.
4GG	.	.	.	.	.	.	.
=79	=79	=79	=79	=79	=79	=79	=79
*	*	*	*	*	*edit	*	*
4.AA	.	1r	.	8AAL	mun-	2A	.
*	*	*	*	*	*	*Xlig	*
.	.	.	.	8BB-y	.	.	.
.	.	.	.	8C	.	.	.
8BB-y	.	.	.	8DJ	.	.	.
4C	.	.	.	4E	.	4G	.
4AA	.	.	.	4F	.	4A	.
!!LO:LB:g=original
=80	=80	=80	=80	=80	=80	=80	=80
4GG	-ta	1r	.	4G	.	4B-y	.
4FF	.	.	.	2A	.	2c	.
*	*Xedit	*	*	*	*	*	*
2F	mun-	.	.	.	.	.	.
.	.	.	.	8GL	.	4A	.
.	.	.	.	8FJ	.	.	.
=81	=81	=81	=81	=81	=81	=81	=81
2C	-di:	1r	.	2E	-di:	2G	.
*	*	*	*	*	*	*	*Xedit
[2FF	mi-	.	.	4r	.	2F	-di:
*	*	*	*	*	*Xedit	*	*
.	.	.	.	[4F	mi-	.	.
=82	=82	=82	=82	=82	=82	=82	=82
4FF]	.	1r	.	4F]	.	1r	.
4GG	.	.	.	4E	.	.	.
4AA	.	.	.	4F	.	.	.
4BB-y	.	.	.	4G	.	.	.
=83	=83	=83	=83	=83	=83	=83	=83
1C	-se-	1r	.	2A	-se-	1r	.
.	.	.	.	4A	-re-	.	.
.	.	.	.	8GL	.	.	.
.	.	.	.	8AJ	.	.	.
=84	=84	=84	=84	=84	=84	=84	=84
2BB-y	-re-	1r	.	8B-yL	.	1r	.
.	.	.	.	8A	.	.	.
.	.	.	.	8G	.	.	.
.	.	.	.	8FJ	.	.	.
*	*	*	*	*col	*	*	*
2C	-re	.	.	6E	.	.	.
.	.	.	.	6F	.	.	.
.	.	.	.	6G	.	.	.
*	*	*	*	*Xcol	*	*	*
=85	=85	=85	=85	=85	=85	=85	=85
*	*edit	*	*	*	*	*	*
4AA	no-	1r	.	4C	-re	1r	.
*	*	*	*	*	*edit	*	*
4FF	.	.	.	2F	no-	.	.
2GG	.	.	.	.	.	.	.
.	.	.	.	4E	.	.	.
!!LO:LB:g=original
=86	=86	=86	=86	=86	=86	=86	=86
2FF	-bis,	1r	.	2.F	-bis,	4r	.
.	.	.	.	.	.	2c	mi-
2r	.	.	.	.	.	.	.
.	.	.	.	4G	.	4B-y	.
=87	=87	=87	=87	=87	=87	=87	=87
2F	mi-	1r	.	4A	mi-	4c	.
.	.	.	.	4B-y	.	4d	.
2C	-se-	.	.	4.c	-se-	2e	-se-
.	.	.	.	8B-y	.	.	.
=88	=88	=88	=88	=88	=88	=88	=88
4C	-re-	1r	.	2G	-re-	4e	-re-
8BB-yL	.	.	.	.	.	8dL	.
8CJ	.	.	.	.	.	8eJ	.
*	*	*	*	*lig	*	*	*
8DL	.	.	.	2F	.	8fL	.
8C	.	.	.	.	.	8e	.
8BB-y	.	.	.	.	.	8d	.
8AAJ	.	.	.	.	.	8cJ	.
=89	=89	=89	=89	=89	=89	=89	=89
*col	*	*	*	*	*	*col	*
6GG	.	1r	.	2G	.	6B-y	.
*	*	*	*	*Xlig	*	*	*
6AA	.	.	.	.	.	6c	.
6BB-y	.	.	.	.	.	6d	.
*Xcol	*	*	*	*	*	*Xcol	*
4C	-re	.	.	4E	-re	4G	-re
*	*	*	*	*	*	*	*edit
4AA	no-	.	.	4C	no-	[4c	no-
=90	=90	=90	=90	=90	=90	=90	=90
2GG	.	1r	.	2D	.	4c]	.
.	.	.	.	.	.	4Bni	.
4AA	-bis,	.	.	[2C	-bis,	2c	-bis,
4FF	.	.	.	.	.	.	.
=91	=91	=91	=91	=91	=91	=91	=91
4.FF	mi-	1r	.	2C]	.	2r	.
8GG	.	.	.	.	.	.	.
4AA	.	.	.	2r	.	4.F	mi-
4BB-y	-se-	.	.	.	.	.	.
.	.	.	.	.	.	8G	.
!!LO:LB:g=original
=92	=92	=92	=92	=92	=92	=92	=92
4AA	.	1r	.	4.F	mi-	4A	.
4D	-re-	.	.	.	.	4B-y	-se-
.	.	.	.	8G	.	.	.
4C	.	.	.	4A	.	4c	-re-
4BB-y	.	.	.	4B-y	-se-	4d	.
=93	=93	=93	=93	=93	=93	=93	=93
4E-X	.	1r	.	4c	-re-	4c	.
4F	.	.	.	4A	.	2f	.
2D	-re	.	.	2B-y	.	.	.
.	.	.	.	.	.	8eL	.
.	.	.	.	.	.	8dJ	.
=94	=94	=94	=94	=94	=94	=94	=94
*	*Xedit	*	*	*	*	*	*
4.C	no-	1r	.	2c	-re	8eL	.
.	.	.	.	.	.	8d	.
.	.	.	.	.	.	8c	.
8D	.	.	.	.	.	8B-yJ	.
4F	.	.	.	4r	.	4A	-re
*	*	*	*	*	*Xedit	*lig	*Xedit
[4D	.	.	.	[4F	no-	[4B-y	no-
=95	=95	=95	=95	=95	=95	=95	=95
4D]	.	1r	.	4F]	.	4B-]	.
4C	.	.	.	2E	.	2A	.
*	*	*	*	*	*	*Xlig	*
2BB-y	.	.	.	.	.	.	.
.	.	.	.	4D	.	4G	.
=96	=96	=96	=96	=96	=96	=96	=96
4AA	.	1r	.	4E	.	4A	.
4.D	.	.	.	4.F	.	4.B-y	.
8CL	.	.	.	8EL	.	8AL	.
8BB-y	.	.	.	8D	.	8G	.
8AAJ	.	.	.	8CJ	.	8FJ	.
=97	=97	=97	=97	=97	=97	=97	=97
2GG	.	1r	.	4.BB-y	.	4.E	.
.	.	.	.	8AA	.	8D	.
2FFl	-bis.	.	.	2Cl	-bis.	2Fl	-bis.
!!LO:LB:g=original
=98||	=98||	=98||	=98||	=98||	=98||	=98||	=98||
2.FF	A-	[1F	A-	1r	.	[1c	A-
4GG	.	.	.	.	.	.	.
=99	=99	=99	=99	=99	=99	=99	=99
*lig	*	*	*	*	*	*	*
2AA	.	1F]	.	1r	.	2c]	.
2BB-y	.	.	.	.	.	2d	.
=100	=100	=100	=100	=100	=100	=100	=100
*Xlig	*	*lig	*	*	*	*	*
4.AA	.	1A	.	1r	.	4.c	.
8BB-y	.	.	.	.	.	8d	.
4C	.	.	.	.	.	4e	.
[4D	.	.	.	.	.	[4f	.
=101	=101	=101	=101	=101	=101	=101	=101
8D]L	.	1B-y	.	1r	.	8f]L	.
*	*	*Xlig	*	*	*	*	*
8C	.	.	.	.	.	8e	.
8BB-y	.	.	.	.	.	8d	.
8AAJ	.	.	.	.	.	8cJ	.
2GG	-gnus,	.	.	.	.	2d	-gnus,
=102	=102	=102	=102	=102	=102	=102	=102
1r	.	[1c	.	4.C	A-	1r	.
.	.	.	.	8D	.	.	.
.	.	.	.	4E	.	.	.
.	.	.	.	[4F	.	.	.
!!LO:LB:g=original
=103	=103	=103	=103	=103	=103	=103	=103
1r	.	1c]	.	8F]L	.	1r	.
.	.	.	.	8GJ	.	.	.
.	.	.	.	2A	.	.	.
.	.	.	.	8GL	.	.	.
.	.	.	.	8FJ	.	.	.
=104	=104	=104	=104	=104	=104	=104	=104
1r	.	2B-y	.	8GL	.	1r	.
.	.	.	.	8F	.	.	.
.	.	.	.	8E	.	.	.
.	.	.	.	8DJ	.	.	.
.	.	2A	.	4C	.	.	.
.	.	.	.	4F	.	.	.
=105	=105	=105	=105	=105	=105	=105	=105
1r	.	1G	-gnus,	8GL	.	1r	.
.	.	.	.	8F	.	.	.
.	.	.	.	8E	.	.	.
.	.	.	.	8DJ	.	.	.
.	.	.	.	2E	-gnus	.	.
=106	=106	=106	=106	=106	=106	=106	=106
*	*edit	*lig	*edit	*	*	*	*edit
4.FF	A-	1F	A-	1r	.	8FL	A-
.	.	.	.	.	.	8G	.
.	.	.	.	.	.	8A	.
8GG	.	.	.	.	.	8B-yJ	.
4AA	.	.	.	.	.	4c	.
[4BB-y	.	.	.	.	.	[4d	.
=107	=107	=107	=107	=107	=107	=107	=107
*	*	*	*	*	*edit	*	*
8BB-]L	.	1G	.	2D	A-	8d]L	.
*	*	*Xlig	*	*	*	*	*
8AA	.	.	.	.	.	8c	.
8GG	.	.	.	.	.	8B-y	.
8FFJ	.	.	.	.	.	8AJ	.
2EE	-gnus	.	.	2E	.	2G	.
!!LO:PB:g=original
=108	=108	=108	=108	=108	=108	=108	=108
*	*Xedit	*lig	*	*	*	*	*
4.FF	De-	2A	-gnus	4C	-gnus	2F	-gnus
*	*	*	*	*	*Xedit	*	*
.	.	.	.	2c	De-	.	.
8GG	.	.	.	.	.	.	.
*	*	*	*	*	*	*	*Xedit
4AA	.	2F	.	.	.	4c	De-
*	*	*Xlig	*	*	*	*	*
4BB-y	.	.	.	4B-y	.	4d	.
=109	=109	=109	=109	=109	=109	=109	=109
4AA	.	1r	.	4c	.	4c	.
4FF	.	.	.	4A	.	2f	.
2C	.	.	.	2G	.	.	.
.	.	.	.	.	.	4e	.
=110	=110	=110	=110	=110	=110	=110	=110
*	*	*	*Xedit	*	*	*	*
1FF	-i,	1F	De-	2F	-i,	4.f	.
.	.	.	.	.	.	8e	.
.	.	.	.	4r	.	4c	-i,
*	*	*	*	*	*edit	*	*edit
.	.	.	.	[4A	De-	[4d	De-
=111	=111	=111	=111	=111	=111	=111	=111
*	*	*lig	*	*	*	*	*
1r	.	2D	.	4A]	.	8d]L	.
.	.	.	.	.	.	8e	.
.	.	.	.	4B-y	.	8f	.
.	.	.	.	.	.	8gJ	.
.	.	2E	.	8cL	.	4e	.
*	*	*Xlig	*	*	*	*	*
.	.	.	.	8B-y	.	.	.
.	.	.	.	8A	.	8dL	.
.	.	.	.	8GJ	.	8cJ	.
=112	=112	=112	=112	=112	=112	=112	=112
1r	.	4D	.	4F	.	4B-y	.
.	.	4C	.	2G	.	2c	.
.	.	2D	.	.	.	.	.
.	.	.	.	4F	.	4Bni	.
!!LO:LB:g=original
=113	=113	=113	=113	=113	=113	=113	=113
*lig	*	*lig	*	*	*	*	*
2FF	qui	1C	-i,	4.A	.	1c	-i,
.	.	.	.	8G	.	.	.
2AA	.	.	.	4.E	.	.	.
*Xlig	*	*	*	*	*	*	*
.	.	.	.	8F	.	.	.
=114	=114	=114	=114	=114	=114	=114	=114
4.GG	tol-	1D	.	4.G	.	1r	.
*	*	*Xlig	*	*	*	*	*
8AA	.	.	.	8F	.	.	.
2BB-y	.	.	.	2D	.	.	.
=115	=115	=115	=115	=115	=115	=115	=115
*	*	*	*	*	*	*	*Xedit
*	*	*lig	*	*	*	*	*
1C	.	1E	qui	2C	-i,	1g	qui
.	.	.	.	4r	.	.	.
*	*	*	*	*	*Xedit	*	*
.	.	.	.	[4c	qui	.	.
=116	=116	=116	=116	=116	=116	=116	=116
*lig	*	*	*	*	*	*	*
2F	-lis	1F	tol-	4c]	.	2a	tol-
.	.	.	.	2c	tol-	.	.
2D	.	.	.	.	.	8b-yL	.
.	.	.	.	.	.	8a	.
.	.	.	.	4B-y	.	8g	.
.	.	.	.	.	.	8fJ	.
=117	=117	=117	=117	=117	=117	=117	=117
1C	.	1G	.	4c	.	4e	.
*Xlig	*	*	*	*	*	*	*
.	.	.	.	4A	.	2f	.
.	.	.	.	2G	-lis	.	.
.	.	.	.	.	.	4e	.
!!LO:LB:g=original
=118	=118	=118	=118	=118	=118	=118	=118
*	*	*	*	*	*	*col	*
1r	.	1F	-lis	1r	.	3f	.
*	*	*Xlig	*	*	*	*	*
.	.	.	.	.	.	3c	.
.	.	.	.	.	.	3d	.
=119	=119	=119	=119	=119	=119	=119	=119
*	*	*	*	*col	*	*lig	*
1r	.	1r	.	3%2C	pec-	3e	.
.	.	.	.	.	.	3c	.
*	*	*	*	*lig	*	*Xlig	*
.	.	.	.	(3D	.	3A	.
=120	=120	=120	=120	=120	=120	=120	=120
1r	.	1r	.	3D)	.	3F	.
.	.	.	.	3%2E	.	3%2G	.
*	*	*	*	*Xlig	*	*	*
*	*	*	*	*Xcol	*	*Xcol	*
=121	=121	=121	=121	=121	=121	=121	=121
*col	*edit	*	*	*	*	*	*
3%2FF	pec-	1r	.	4.F	-ca-	1F	-lis
.	.	.	.	.	.	.	.
.	.	.	.	8E	.	.	.
.	.	.	.	4C	.	.	.
(3FF	.	.	.	.	.	.	.
.	.	.	.	[4D	.	.	.
=122	=122	=122	=122	=122	=122	=122	=122
3FF)	.	1r	.	8D]L	.	1r	.
.	.	.	.	8C	.	.	.
.	.	.	.	8BB-y	.	.	.
3%2GG	.	.	.	.	.	.	.
.	.	.	.	8AAJ	.	.	.
.	.	.	.	2BB-y	-ta,	.	.
!!LO:LB:g=original
=123	=123	=123	=123	=123	=123	=123	=123
*	*	*col	*	*col	*edit	*	*
*	*	*lig	*	*	*	*	*
3.AA	.	[1F	pec-	3.AA	pec-	1r	.
6GG-y	.	.	.	6BB-y	.	.	.
3AA	.	.	.	3C	.	.	.
=124	=124	=124	=124	=124	=124	=124	=124
*	*edit	*	*	*	*	*	*
3.BB-	ca-	2F]	.	3%2D	-ca-	1r	.
6AA	.	2G	.	.	.	.	.
*	*	*Xlig	*	*	*	*	*
3GG	.	.	.	3E	.	.	.
=125	=125	=125	=125	=125	=125	=125	=125
*	*	*	*	*	*	*col	*
3%2FF	.	3.A	-ca-	3%2F	.	3.A	pec-
.	.	6G	.	.	.	6B-y	.
3FF	-ta,	3A	.	3C	.	3c	.
=126	=126	=126	=126	=126	=126	=126	=126
1r	.	3.B-y	.	3%2BB-y	-ta,	3%2d	-ca-
.	.	6A	.	.	.	.	.
.	.	3G	.	3C	.	3e	.
=127	=127	=127	=127	=127	=127	=127	=127
*lig	*	*lig	*	*	*	*	*
3FF	pec-	3F	.	3%2c	pec-	3f	.
3C	.	3E	.	.	.	3g	.
*Xlig	*	*	*	*	*	*	*
3AA	-ca-	3F	.	3c	-ca-	3c	.
!!LO:PB:g=original
=128	=128	=128	=128	=128	=128	=128	=128
3FF	.	3F	.	3A	.	3%2f	.
3%2C	.	3%2G	.	3%2G	.	.	.
*	*	*Xlig	*	*	*	*	*
.	.	.	.	.	.	3e	.
*Xcol	*	*Xcol	*	*Xcol	*	*Xcol	*
=129	=129	=129	=129	=129	=129	=129	=129
1FF	-ta	1F	-ta	1A	-ta	4.f	-ta
.	.	.	.	.	.	8e	.
.	.	.	.	.	.	4d	.
.	.	.	.	.	.	[4c	mun-
=130	=130	=130	=130	=130	=130	=130	=130
*	*Xedit	*lig	*	*	*Xedit	*	*
2FF	mun-	1F	mun-	4.F	mun-	8c]L	.
.	.	.	.	.	.	8B-yJ	.
.	.	.	.	.	.	2A	.
.	.	.	.	8E	.	.	.
2FF	-di,	.	.	4D	.	.	.
.	.	.	.	[4C	.	8GL	.
.	.	.	.	.	.	8FJ	.
=131	=131	=131	=131	=131	=131	=131	=131
2C	.	[1G	.	4C]	.	2E	-di,
.	.	.	.	2c	.	.	.
4r	.	.	.	.	.	4r	.
*	*edit	*	*	*	*	*	*edit
[4C	pec-	.	.	8B-yL	.	[4e	pec-
.	.	.	.	8AJ	.	.	.
=132	=132	=132	=132	=132	=132	=132	=132
4C]	.	1G]	.	2G	-di,	4e]	.
*	*	*Xlig	*	*	*	*	*
2C	-ca-	.	.	.	.	2e	-ca-
.	.	.	.	2r	.	.	.
4C	-ta	.	.	.	.	4e	-ta
!!LO:LB:g=original
=133	=133	=133	=133	=133	=133	=133	=133
*	*	*	*	*	*edit	*	*
1FF	mun-	1A	.	4.F	mun-	1f	mun-
.	.	.	.	8E	.	.	.
.	.	.	.	4.C	.	.	.
.	.	.	.	8D	.	.	.
=134	=134	=134	=134	=134	=134	=134	=134
*lig	*	*	*	*	*	*	*
2EE-X	.	2B-y	.	2E-X	.	2g	.
2FF	.	[2A	.	4C	.	2f	.
*Xlig	*	*	*	*	*	*	*
.	.	.	.	[4D	.	.	.
=135	=135	=135	=135	=135	=135	=135	=135
1GG	-di,	2A]	.	4D]	.	1d	-di,
.	.	.	.	4C	.	.	.
.	.	2G	.	2BB-y	.	.	.
=136	=136	=136	=136	=136	=136	=136	=136
2r	.	1A	-di:	2AA	-di,	2.c	pec-
2C	pec-	.	.	2E	pec-	.	.
.	.	.	.	.	.	4A	.
=137	=137	=137	=137	=137	=137	=137	=137
4D	.	1r	.	4F	.	4B-y	.
4C	.	.	.	2E	-ca-	2A	-ca-
2BB-y	-ca-	.	.	.	.	.	.
.	.	.	.	4D	.	4G	.
!!LO:LB:g=original
=138	=138	=138	=138	=138	=138	=138	=138
4AA	.	1r	.	4E	.	4A	.
4FF	.	.	.	4F	.	2c	.
2GG	.	.	.	2D	.	.	.
.	.	.	.	.	.	4B-y	.
=139	=139	=139	=139	=139	=139	=139	=139
4AA	.	4r	.	4C	.	4A	.
4BB-y	.	2c	do-	2F	.	4F	.
2GG	.	.	.	.	.	2G	.
.	.	4B-y	.	4E	.	.	.
=140	=140	=140	=140	=140	=140	=140	=140
4FF	-ta	4A	.	2F	-ta	4A	-ta
2FF	mun-	4F	.	.	.	4c	mun-
.	.	2G	.	2r	.	4d	.
4EE	.	.	.	.	.	4e	.
=141	=141	=141	=141	=141	=141	=141	=141
*lig	*	*	*	*lig	*	*	*
2FF	.	2A	-na,	2F	mun-	4c	.
.	.	.	.	.	.	2f	.
2C	.	2r	.	2G	.	.	.
*Xlig	*	*	*	*Xlig	*	*	*
.	.	.	.	.	.	4e	.
=142	=142	=142	=142	=142	=142	=142	=142
[1FF	-di:	2r	.	2.F	-di:	1f	-di:
*	*	*	*edit	*	*	*	*
.	.	[2A	do-	.	.	.	.
*	*	*	*	*	*Xedit	*	*
.	.	.	.	[4c	do-	.	.
=143	=143	=143	=143	=143	=143	=143	=143
2FF]	.	2A]	.	4c]	.	2r	.
.	.	.	.	8B-yL	.	.	.
.	.	.	.	8AJ	.	.	.
*	*Xedit	*lig	*	*	*	*	*Xedit
2GG	do-	[2G	.	[2B-y	-na	2d	do-
!!LO:LB:g=original
=144	=144	=144	=144	=144	=144	=144	=144
2EE-X	.	2G]	.	4B-]	.	2e-X	.
.	.	.	.	8AL	.	.	.
.	.	.	.	8GJ	.	.	.
2FF	-na-	[2A	-na	2F	.	[2c	-na
=145	=145	=145	=145	=145	=145	=145	=145
2F	.	2A]	.	4r	.	4c]	.
.	.	.	.	4.D	no-	4.f	no-
*	*	*Xlig	*Xedit	*	*	*	*
4.BB-y	-no-	4.B-y	no-	.	.	.	.
.	.	.	.	8E-j	.	8e-jL	.
.	.	.	.	[4F	.	8d	.
8C	.	8A	.	.	.	8cJ	.
=146	=146	=146	=146	=146	=146	=146	=146
*	*	*lig	*	*	*	*	*
2D	.	2F	-bis	4F]	.	4.B-y	.
.	.	.	.	4D	.	.	.
.	.	.	.	.	.	8A	.
2C	-bis	2G	.	2E	-bis	2c	-bis
=147	=147	=147	=147	=147	=147	=147	=147
*	*	*Xlig	*edit	*	*edit	*	*
*	*	*lig	*	*	*	*	*
4.D	pa-	1F	pa-	8FL	pa-	1r	.
.	.	.	.	8G	.	.	.
.	.	.	.	8A	.	.	.
8C	.	.	.	8B-yJ	.	.	.
4AA	.	.	.	4c	.	.	.
[4BB-y	.	.	.	[4B-y	.	.	.
=148	=148	=148	=148	=148	=148	=148	=148
4BB-]	.	1G	.	8B-]L	.	1r	.
*	*	*Xlig	*	*	*	*	*
.	.	.	.	8A	.	.	.
4.C	.	.	.	8G	.	.	.
.	.	.	.	8FJ	.	.	.
.	.	.	.	2E	.	.	.
8BB-y	.	.	.	.	.	.	.
*	*edit	*	*	*	*	*	*
4C	-cem,	.	.	.	.	.	.
!!LO:PB:g=original
=149	=149	=149	=149	=149	=149	=149	=149
*	*	*lig	*	*	*	*	*
4.FF	pa-	2A	.	4F	-cem,	1r	.
.	.	.	.	2c	pa-	.	.
8GG	.	.	.	.	.	.	.
4AA	.	2F	.	.	.	.	.
*	*	*Xlig	*	*	*	*	*
4BB-y	.	.	.	4d	.	.	.
=150	=150	=150	=150	=150	=150	=150	=150
*	*	*lig	*	*	*	*	*
4GG	.	2G	.	4B-y	.	1r	.
4.C	.	.	.	2e-X	.	.	.
.	.	2E-i	.	.	.	.	.
8BB-y	.	.	.	.	.	.	.
4C	.	.	.	8dL	.	.	.
.	.	.	.	8cJ	.	.	.
=151	=151	=151	=151	=151	=151	=151	=151
4.D	.	1D	.	4B-y	.	2r	.
.	.	.	.	4.d	.	.	.
8E	.	.	.	.	.	.	.
2F	-cem,	.	.	.	.	2d	pa-
.	.	.	.	8A	.	.	.
.	.	.	.	4B-y	.	.	.
=152	=152	=152	=152	=152	=152	=152	=152
4.G	pa-	1C	-cem,	1c	-cem,	4.e	.
*	*	*Xlig	*	*	*	*	*
8F	.	.	.	.	.	8f	.
8EL	.	.	.	.	.	4.g	.
8DJ	.	.	.	.	.	.	.
[4C	.	.	.	.	.	.	.
.	.	.	.	.	.	8f	.
=153	=153	=153	=153	=153	=153	=153	=153
4C]	.	1r	.	1r	.	8eL	.
.	.	.	.	.	.	8dJ	.
*	*	*	*	*	*	*	*edit
2F	-cem,	.	.	.	.	2c	-cem,
[4F	pa-	.	.	.	.	4A	pa-
!!LO:LB:g=original
=154	=154	=154	=154	=154	=154	=154	=154
2F]	.	2r	.	1r	.	4F	.
.	.	.	.	.	.	2A	.
*	*	*	*Xedit	*	*	*	*
4D	.	2F	pa-	.	.	.	.
4BB-y	.	.	.	.	.	4B-y	.
=155	=155	=155	=155	=155	=155	=155	=155
*	*	*lig	*	*	*	*	*
2.E-i	.	1G	.	1r	.	4G	.
.	.	.	.	.	.	2B-y	.
4C	.	.	.	.	.	4c	.
=156	=156	=156	=156	=156	=156	=156	=156
2.F	.	1A	.	1r	.	4A	.
*	*	*Xlig	*	*	*	*	*
.	.	.	.	.	.	2c	.
4D	.	.	.	.	.	4d	.
=157	=157	=157	=157	=157	=157	=157	=157
4.G	.	1B-y	.	1r	.	4B-y	.
.	.	.	.	.	.	2d	-cem,
8F	.	.	.	.	.	.	.
4D	.	.	.	.	.	.	.
4E-i	.	.	.	.	.	[4g	pa-
=158	=158	=158	=158	=158	=158	=158	=158
2C	-cem,	2c	-cem,	2r	.	8g]L	.
.	.	.	.	.	.	8f	.
.	.	.	.	.	.	8e	.
.	.	.	.	.	.	8dJ	.
*	*	*	*edit	*	*Xedit	*	*
2r	.	2A	pa-	2F	pa-	4c	.
.	.	.	.	.	.	[4f	.
!!LO:LB:g=original
=159	=159	=159	=159	=159	=159	=159	=159
1r	.	1G	.	4G	.	4f]	.
.	.	.	.	4.E	.	8eL	.
.	.	.	.	.	.	8dJ	.
.	.	.	.	.	.	8eL	.
.	.	.	.	8FL	.	8d	.
.	.	.	.	8G	.	8c	.
.	.	.	.	8EJ	.	8B-yJ	.
=160	=160	=160	=160	=160	=160	=160	=160
4.FF	pa-	4F	.	4.F	.	4A	.
.	.	2c	.	.	.	2a	.
8GG	.	.	.	8E	.	.	.
4AA	.	.	.	4C	.	.	.
4BB-y	.	4B-y	.	4D	.	[4g	.
=161	=161	=161	=161	=161	=161	=161	=161
*	*	*	*	*	*edit	*	*
4C	.	4A	.	4C	-cem,	4g]	.
4D	.	4F	.	4B-y	pa-	2f	.
2C	-cem,	2G	.	2c	.	.	.
.	.	.	.	.	.	4e	.
=162	=162	=162	=162	=162	=162	=162	=162
*	*	*	*	*	*	*	*Xedit
4.FF	pa-	[1Fl	-cem.	2d	.	[1fl	-cem.
8GG	.	.	.	.	.	.	.
4AA	.	.	.	4c	.	.	.
.	.	.	.	.	.	.	.
[4BB-y	.	.	.	[4d	.	.	.
.	.	.	.	.	.	.	.
=163	=163	=163	=163	=163	=163	=163	=163
4BB-]	.	1F_	.	4d]	.	1f_	.
8AAL	.	.	.	8cL	.	.	.
8GGJ	.	.	.	8B-yJ	.	.	.
4AA	.	.	.	4c	.	.	.
4BB-y	.	.	.	4d	.	.	.
=164	=164	=164	=164	=164	=164	=164	=164
*	*	*	*	*^	*	*	*
*	*Xedit	*	*	*	*	*Xedit	*	*
1FFl	-cem.	1F]	.	1cl	1Al	-cem.	1f]	.
*	*	*	*	*v	*v	*	*	*
==	==	==	==	==	==	==	==
*-	*-	*-	*-	*-	*-	*-	*-
!!!system-decoration: [*]
!!!RDF**kern: j = editorial accidental, optional, paren up
!!!RDF**kern: i = editorial accidental
!!!RDF**kern: l = terminal breve
!!!PTL: Gaspar van Weerbeke: Collected Works. I. Masses, Part 1
!!!ISBN: 978-1-59551-515-5
!!!PPR: American Institute of Musicology
!!!PC#: Corpus Mensurabilis Musicae 106/I.1
!!!PDT: 2016
!!!PED: Pavanello, Agnese
!!!YEC: Copyright 2014, Pavanello, Agnese
!!!YEM: CC-BY-NC 4.0 (https://creativecommons.org/licenses/by-nc/4.0/legalcode)
!!!EED: Mair-Gruber, Roland
!!!EEV: 2021/10/13
!!!title: @{OPR} &mdash; @{OTL}
